public/user.svg

<svg fill="none" height="24" viewBox="0 0 24 24" width="24" xmlns="http://www.w3.org/2000/svg"><g stroke="#ffffe3" stroke-width="2"><path d="m12 15c3.3137 0 6-2.6863 6-6 0-3.31371-2.6863-6-6-6-3.31371 0-6 2.68629-6 6 0 3.3137 2.68629 6 6 6z" stroke-miterlimit="10"/><path d="m2.90527 20.2491c.92209-1.596 2.24795-2.9213 3.84439-3.8427 1.59645-.9214 3.40724-1.4064 5.25054-1.4064 1.8432 0 3.654.4851 5.2504 1.4065 1.5965.9214 2.9223 2.2468 3.8443 3.8428" stroke-linecap="round" stroke-linejoin="round"/></g></svg>

<svg width="24" height="24" viewBox="0 0 24 24" fill="none" xmlns="http://www.w3.org/2000/svg">
<path d="M12 15C15.3137 15 18 12.3137 18 9C18 5.68629 15.3137 3 12 3C8.68629 3 6 5.68629 6 9C6 12.3137 8.68629 15 12 15Z" stroke="#FFFFE3" stroke-width="2" stroke-miterlimit="10"/>
<path d="M2.90527 20.2491C3.82736 18.6531 5.15322 17.3278 6.74966 16.4064C8.34611 15.485 10.1569 15 12.0002 15C13.8434 15 15.6542 15.4851 17.2506 16.4065C18.8471 17.3279 20.1729 18.6533 21.0949 20.2493" stroke="#FFFFE3" stroke-width="2" stroke-linecap="round" stroke-linejoin="round"/>
</svg>
